X: 1277
T: Bonnie Kate
R:Reel
N:Collected by J. O'Neill
B:O'Neill's 1277
Z:Transcribed by Trish O'Neil
M:C|
L:1/8
K:D
(dB)|AFdB ABAF|DFAFE2(EB)|AFAd BGBd|cABc dedB|
|AFdB ABAF|DFAFE2(EB)|AFAd BGBd|cABc defg||
a2fd (fa)fd|(3fga fde2(ef)|{a}gfef gbag|fedc defg|
a2fd (3fga fd|(3fga fde2((ef)|{a}gfef gbag|fedc d2|]


